src/svgs/xdai.svg

<svg fill="none" height="22" viewBox="0 0 76 80" width="24" xmlns="http://www.w3.org/2000/svg"><path clip-rule="evenodd" d="m25.6646 39.9715-25.535511-27.1063 12.402011-12.281216 25.1545 26.701916 25.1977-26.590691 12.3667 12.318591-25.5798 26.9939 25.5562 27.1284-12.4019 12.2812-25.1754-26.724-25.2824 26.6801-12.3667-12.3186z" fill="#111" fill-rule="evenodd"/></svg>

<svg width="24" height="22" viewBox="0 0 76 80" fill="none" xmlns="http://www.w3.org/2000/svg">
<path fill-rule="evenodd" clip-rule="evenodd" d="M25.6646 39.9715L0.129089 12.8652L12.5311 0.583984L37.6856 27.2859L62.8833 0.695209L75.25 13.0138L49.6702 40.0077L75.2264 67.1361L62.8245 79.4173L37.6491 52.6933L12.3667 79.3734L0 67.0548L25.6646 39.9715Z" fill="#111111"/>
</svg>
